packages/Snappmarket/src/GridOutlineIcon/index.svg

<svg
  width="32pt"
  height="32pt"
  viewBox="0 0 32 32"
  version="1.1"
  id="GridOutlineIcon"
>
  <path d="M 3.875 2.097656 C 3.191406 2.285156 2.519531 2.867188 2.199219 3.546875 L 2.03125 3.90625 L 2.03125 12.65625 L 2.214844 13.03125 C 2.449219 13.511719 2.988281 14.050781 3.46875 14.285156 L 3.84375 14.46875 L 12.59375 14.46875 L 12.953125 14.300781 C 13.371094 14.105469 13.929688 13.601562 14.15625 13.214844 C 14.5 12.625 14.503906 12.5625 14.488281 8.082031 L 14.46875 3.96875 L 14.269531 3.546875 C 14.003906 2.988281 13.511719 2.496094 12.953125 2.230469 L 12.53125 2.03125 L 8.375 2.019531 C 4.863281 2.007812 4.164062 2.019531 3.875 2.097656 M 19.300781 2.117188 C 18.628906 2.335938 18.007812 2.886719 17.699219 3.546875 L 17.53125 3.90625 L 17.53125 12.65625 L 17.714844 13.03125 C 17.949219 13.511719 18.488281 14.050781 18.96875 14.285156 L 19.34375 14.46875 L 23.625 14.484375 C 28.394531 14.503906 28.195312 14.519531 28.867188 14.074219 C 29.265625 13.8125 29.695312 13.257812 29.855469 12.796875 C 29.960938 12.492188 29.96875 12.175781 29.96875 8.21875 L 29.96875 3.96875 L 29.769531 3.546875 C 29.503906 2.988281 29.011719 2.496094 28.453125 2.230469 L 28.03125 2.03125 L 23.84375 2.019531 C 19.9375 2.003906 19.632812 2.011719 19.300781 2.117188 M 12.160156 4.339844 L 12.3125 4.496094 L 12.3125 8.265625 C 12.3125 11.949219 12.308594 12.042969 12.1875 12.171875 C 11.996094 12.378906 11.902344 12.382812 8.046875 12.363281 L 4.441406 12.34375 L 4.296875 12.203125 L 4.15625 12.058594 L 4.136719 8.453125 C 4.117188 4.640625 4.125 4.5 4.316406 4.308594 C 4.433594 4.191406 4.558594 4.1875 8.222656 4.1875 L 12.003906 4.1875 L 12.160156 4.339844 M 27.660156 4.339844 L 27.8125 4.496094 L 27.8125 8.273438 C 27.8125 11.898438 27.808594 12.054688 27.691406 12.195312 L 27.574219 12.34375 L 19.941406 12.34375 L 19.796875 12.203125 L 19.65625 12.058594 L 19.636719 8.453125 C 19.617188 4.640625 19.625 4.5 19.816406 4.308594 C 19.933594 4.191406 20.058594 4.1875 23.722656 4.1875 L 27.503906 4.1875 L 27.660156 4.339844 M 3.800781 17.617188 C 3.128906 17.835938 2.507812 18.386719 2.199219 19.046875 L 2.03125 19.40625 L 2.03125 28.15625 L 2.214844 28.53125 C 2.449219 29.011719 2.988281 29.550781 3.46875 29.785156 L 3.84375 29.96875 L 12.59375 29.96875 L 12.953125 29.800781 C 13.371094 29.605469 13.929688 29.101562 14.15625 28.714844 C 14.5 28.125 14.503906 28.0625 14.488281 23.582031 L 14.46875 19.46875 L 14.269531 19.046875 C 14.003906 18.488281 13.511719 17.996094 12.953125 17.730469 L 12.53125 17.53125 L 8.34375 17.519531 C 4.4375 17.503906 4.132812 17.511719 3.800781 17.617188 M 19.300781 17.617188 C 18.628906 17.835938 18.007812 18.386719 17.699219 19.046875 L 17.53125 19.40625 L 17.53125 28.15625 L 17.714844 28.53125 C 17.949219 29.011719 18.488281 29.550781 18.96875 29.785156 L 19.34375 29.96875 L 23.625 29.984375 C 28.394531 30.003906 28.195312 30.019531 28.867188 29.574219 C 29.265625 29.3125 29.695312 28.757812 29.855469 28.296875 C 29.960938 27.992188 29.96875 27.675781 29.96875 23.71875 L 29.96875 19.46875 L 29.769531 19.046875 C 29.503906 18.488281 29.011719 17.996094 28.453125 17.730469 L 28.03125 17.53125 L 23.84375 17.519531 C 19.9375 17.503906 19.632812 17.511719 19.300781 17.617188 M 12.160156 19.839844 L 12.3125 19.996094 L 12.3125 23.765625 C 12.3125 27.449219 12.308594 27.542969 12.1875 27.671875 C 11.996094 27.878906 11.902344 27.882812 8.046875 27.863281 L 4.441406 27.84375 L 4.296875 27.703125 L 4.15625 27.558594 L 4.136719 23.953125 C 4.117188 20.140625 4.125 20 4.316406 19.808594 C 4.433594 19.691406 4.558594 19.6875 8.222656 19.6875 L 12.003906 19.6875 L 12.160156 19.839844 M 27.660156 19.839844 L 27.8125 19.996094 L 27.8125 23.773438 C 27.8125 27.398438 27.808594 27.554688 27.691406 27.695312 L 27.574219 27.84375 L 19.941406 27.84375 L 19.796875 27.703125 L 19.65625 27.558594 L 19.636719 23.953125 C 19.617188 20.140625 19.625 20 19.816406 19.808594 C 19.933594 19.691406 20.058594 19.6875 23.722656 19.6875 L 27.503906 19.6875 L 27.660156 19.839844 " />
</svg>

<svg viewBox="0 0 32 32">
  <path d="M3.875 2.098c-.684.187-1.355.77-1.676 1.449l-.168.36v8.75l.184.374c.234.48.773 1.02 1.254 1.254l.375.184h8.75l.36-.168c.417-.196.976-.7 1.202-1.086.344-.59.348-.652.332-5.133l-.02-4.113-.198-.422a2.866 2.866 0 00-1.317-1.317l-.422-.199-4.156-.011c-3.512-.012-4.21 0-4.5.078m15.426.02a2.797 2.797 0 00-1.602 1.429l-.168.36v8.75l.184.374c.234.48.773 1.02 1.254 1.254l.375.184 4.281.015c4.77.02 4.57.036 5.242-.41.399-.261.828-.816.988-1.277.106-.305.114-.621.114-4.578v-4.25l-.2-.422a2.866 2.866 0 00-1.316-1.317l-.422-.199-4.187-.011c-3.907-.016-4.211-.008-4.543.097M12.16 4.34l.152.156v3.77c0 3.683-.004 3.777-.126 3.906-.19.207-.285.21-4.14.191l-3.606-.02-.144-.14-.14-.144-.02-3.606c-.02-3.812-.012-3.953.18-4.144.117-.118.242-.122 3.906-.122h3.78l.157.153m15.5 0l.152.156v3.777c0 3.625-.003 3.782-.12 3.922l-.118.149h-7.633l-.144-.14-.14-.145-.02-3.606c-.02-3.812-.012-3.953.18-4.144.117-.118.242-.122 3.906-.122h3.78l.157.153M3.8 17.617a2.797 2.797 0 00-1.6 1.43l-.169.36v8.75l.184.374c.234.48.773 1.02 1.254 1.254l.375.184h8.75l.36-.168c.417-.196.976-.7 1.202-1.086.344-.59.348-.652.332-5.133l-.02-4.113-.198-.422a2.866 2.866 0 00-1.317-1.317l-.422-.199-4.187-.011c-3.906-.016-4.211-.008-4.543.097m15.5 0a2.797 2.797 0 00-1.602 1.43l-.168.36v8.75l.184.374c.234.48.773 1.02 1.254 1.254l.375.184 4.281.015c4.77.02 4.57.036 5.242-.41.399-.262.828-.816.988-1.277.106-.305.114-.621.114-4.578v-4.25l-.2-.422a2.866 2.866 0 00-1.316-1.317l-.422-.199-4.187-.011c-3.907-.016-4.211-.008-4.543.097m-7.14 2.223l.152.156v3.77c0 3.683-.004 3.777-.126 3.906-.19.207-.285.21-4.14.191l-3.606-.02-.144-.14-.14-.144-.02-3.606c-.02-3.812-.012-3.953.18-4.144.117-.118.242-.122 3.906-.122h3.78l.157.153m15.5 0l.152.156v3.777c0 3.625-.003 3.782-.12 3.922l-.118.149h-7.633l-.144-.14-.14-.145-.02-3.606c-.02-3.812-.012-3.953.18-4.144.117-.118.242-.122 3.906-.122h3.78l.157.153"/>
</svg>
